src/components/icons/SportsIcon.svg

<svg width="36" height="36" viewBox="0 0 36 36" fill="none" xmlns="http://www.w3.org/2000/svg">
<path d="M15.75 4.28572H20.5714V7.55358H15.75V4.28572Z" fill="#D81B60"/>
<path d="M18.1607 13.9821C16.2204 13.9821 14.597 15.3647 14.2237 17.1964H22.0977C21.7244 15.3647 20.1011 13.9821 18.1607 13.9821Z" fill="#D81B60"/>
<path d="M12.5934 17.1964C12.9845 14.4741 15.3319 12.375 18.1607 12.375C20.9896 12.375 23.337 14.4741 23.7281 17.1964H28.6072V6.69644C28.6072 5.36717 27.5257 4.28572 26.1964 4.28572H22.1786V8.35715C22.1786 8.80094 21.8188 9.16072 21.375 9.16072H14.9464C14.5027 9.16072 14.1429 8.80094 14.1429 8.35715V4.28572H10.125C8.79574 4.28572 7.71429 5.36717 7.71429 6.69644V17.1964H12.5934Z" fill="#F50057"/>
<path d="M18.1607 12.375C15.3319 12.375 12.9845 14.4741 12.5934 17.1964H7.71429V6.69644C7.71429 5.36717 8.79574 4.28572 10.125 4.28572H14.1429V8.35715C14.1429 8.80094 14.5027 9.16072 14.9464 9.16072H21.375C21.8188 9.16072 22.1786 8.80094 22.1786 8.35715V4.28572H26.1964C25.9286 6.82143 23.9464 11.9893 18.1607 12.375Z" fill="black" fill-opacity="0.1"/>
<path d="M23.7281 18.8036C23.337 21.5259 20.9896 23.625 18.1607 23.625C15.3319 23.625 12.9845 21.5259 12.5934 18.8036H7.71429V29.3036C7.71429 30.6328 8.79574 31.7143 10.125 31.7143H14.1429V27.6429C14.1429 27.1991 14.5027 26.8393 14.9464 26.8393H21.375C21.8188 26.8393 22.1786 27.1991 22.1786 27.6429V31.7143H26.1964C27.5257 31.7143 28.6072 30.6328 28.6072 29.3036V18.8036H23.7281Z" fill="#D81B60"/>
<path d="M18.1607 23.625C20.9896 23.625 23.337 21.5259 23.7281 18.8036H28.6072V29.3036C28.6072 30.6328 27.5257 31.7143 26.1964 31.7143H22.1786V27.6429C22.1786 27.1991 21.8188 26.8393 21.375 26.8393H14.9464C14.5027 26.8393 14.1429 27.1991 14.1429 27.6429V31.7143H10.125C8.79574 31.7143 7.71429 30.6328 7.71429 29.3036C8.51787 27.5714 11.7322 24.0107 18.1607 23.625Z" fill="black" fill-opacity="0.1"/>
<path d="M15.75 28.4464H20.5714V31.7143H15.75V28.4464Z" fill="#F50057"/>
<path d="M18.1607 22.0179C20.1011 22.0179 21.7244 20.6353 22.0977 18.8036H14.2237C14.597 20.6353 16.2204 22.0179 18.1607 22.0179Z" fill="#F50057"/>
</svg>

<svg width="36" height="36" fill="none" xmlns="http://www.w3.org/2000/svg"><path d="M15.75 4.286h4.821v3.268H15.75V4.286zM18.16 13.982a4.025 4.025 0 00-3.936 3.214h7.874a4.025 4.025 0 00-3.937-3.214z" fill="#D81B60"/><path d="M12.593 17.196a5.633 5.633 0 015.568-4.821c2.829 0 5.176 2.1 5.567 4.821h4.88v-10.5c0-1.329-1.082-2.41-2.412-2.41H22.18v4.071c0 .444-.36.804-.804.804h-6.429a.804.804 0 01-.803-.804V4.286h-4.018a2.413 2.413 0 00-2.41 2.41v10.5h4.878z" fill="#F50057"/><path d="M18.16 12.375a5.633 5.633 0 00-5.567 4.821H7.714v-10.5c0-1.329 1.082-2.41 2.411-2.41h4.018v4.071c0 .444.36.804.803.804h6.429c.444 0 .804-.36.804-.804V4.286h4.017c-.267 2.535-2.25 7.703-8.035 8.089z" fill="#000" fill-opacity=".1"/><path d="M23.728 18.804a5.633 5.633 0 01-5.567 4.821 5.633 5.633 0 01-5.568-4.821H7.714v10.5c0 1.329 1.082 2.41 2.411 2.41h4.018v-4.071c0-.444.36-.804.803-.804h6.429c.444 0 .804.36.804.804v4.071h4.017c1.33 0 2.411-1.081 2.411-2.41v-10.5h-4.879z" fill="#D81B60"/><path d="M18.16 23.625c2.83 0 5.177-2.1 5.568-4.821h4.88v10.5c0 1.329-1.082 2.41-2.412 2.41H22.18v-4.071a.804.804 0 00-.804-.804h-6.429a.804.804 0 00-.803.804v4.071h-4.018a2.413 2.413 0 01-2.41-2.41c.803-1.733 4.017-5.293 10.446-5.679z" fill="#000" fill-opacity=".1"/><path d="M15.75 28.446h4.821v3.268H15.75v-3.268zM18.16 22.018a4.025 4.025 0 003.938-3.214h-7.874a4.025 4.025 0 003.937 3.214z" fill="#F50057"/></svg>
